pix/material/download.svg

<svg height="24" viewBox="0 0 24 24" width="24" xmlns="http://www.w3.org/2000/svg"><path d="m0 0h24v24h-24z" fill="none"/><path d="m20.54 5.23-1.39-1.68c-.27-.34-.68-.55-1.15-.55h-12c-.47 0-.88.21-1.16.55l-1.38 1.68c-.29.34-.46.79-.46 1.27v12.5c0 1.1.9 2 2 2h14c1.1 0 2-.9 2-2v-12.5c0-.48-.17-.93-.46-1.27zm-14.3-.23h11.52l.81.97h-13.13zm-1.24 14v-11h14v11zm8.45-9h-2.9v3h-2.55l4 4 4-4h-2.55z"/></svg>

<svg xmlns="http://www.w3.org/2000/svg" height="24px" viewBox="0 0 24 24" width="24px" fill="#000000"><path d="M0 0h24v24H0V0z" fill="none"/><path d="M20.54 5.23l-1.39-1.68C18.88 3.21 18.47 3 18 3H6c-.47 0-.88.21-1.16.55L3.46 5.23C3.17 5.57 3 6.02 3 6.5V19c0 1.1.9 2 2 2h14c1.1 0 2-.9 2-2V6.5c0-.48-.17-.93-.46-1.27zM6.24 5h11.52l.81.97H5.44l.8-.97zM5 19V8h14v11H5zm8.45-9h-2.9v3H8l4 4 4-4h-2.55z"/></svg>
